packages/Snappmarket/src/DiscountColorfulIcon/index.svg

<svg width="16px" height="16px" viewBox="0 0 16 16" version="1.1" xmlns="http://www.w3.org/2000/svg">
  <g stroke="none" stroke-width="1" fill="none" fill-rule="evenodd">
    <g transform="translate(-1300.000000, -90.000000)" fill-rule="nonzero">
      <g transform="translate(0.000000, 71.000000)">
        <g transform="translate(242.000000, 16.000000)">
          <g transform="translate(1058.000000, 3.000000)">
            <path d="M9.53556236,1.79935951 C9.74487483,2.57914089 10.696656,2.86104719 11.2906559,2.31920335 C12.102562,1.57860947 13.3635306,2.39604711 13.0329681,3.44870354 C12.7911244,4.21882867 13.4407181,4.9750788 14.230843,4.84320378 C15.3107803,4.66295375 15.9334678,6.03832898 15.0911866,6.7435791 C14.474968,7.25954794 14.6161554,8.25001686 15.3514991,8.56998566 C16.3566239,9.00732949 16.1433115,10.5039235 15.0567491,10.6378923 C14.2618117,10.7358923 13.849718,11.6461112 14.2968742,12.3163301 C14.9080304,13.2323927 13.926468,14.3750804 12.9405932,13.8952053 C12.219312,13.5441428 11.3848121,14.0851116 11.4017809,14.892768 C11.4249684,15.9967057 9.98678105,16.4227058 9.41459363,15.4813618 C8.99596868,14.7926742 8.00400007,14.7926742 7.58540637,15.4813618 C7.01321895,16.4227058 5.57503164,15.9967369 5.59821914,14.892768 C5.61518789,14.0851116 4.780688,13.5441115 4.05940684,13.8952053 C3.07353198,14.3750804 2.09196961,13.2323615 2.70312578,12.3163301 C3.15028197,11.6461112 2.73818827,10.7359235 1.94325088,10.6378923 C0.856688523,10.5039235 0.643376052,9.00732949 1.64850092,8.56998566 C2.38387582,8.25001686 2.52503205,7.25957919 1.90881338,6.7435791 C1.0665635,6.03832898 1.68921966,4.66295375 2.76915702,4.84320378 C3.55928191,4.9750788 4.20887557,4.21885992 3.96703186,3.44870354 C3.6364694,2.39604711 4.89743798,1.57860947 5.70934412,2.31920335 C6.30334404,2.86104719 7.25512517,2.57914089 7.46443764,1.79935951 C7.7505626,0.73354683 9.24946865,0.73354683 9.53556236,1.79935951 Z" fill="#60E1A9"/>
            <path d="M16,8.53788074 C16,9.043329 15.6374162,9.54689826 14.9782653,9.62205785 C14.3600785,9.69251997 13.9555149,10.1826231 13.9555149,10.7015375 C13.9555149,10.9057211 14.0181461,11.1146021 14.1549191,11.3040669 C14.2971088,11.5013608 14.35974,11.7093024 14.35974,11.9091016 C14.35974,12.6394023 13.5242061,13.2638532 12.6856253,12.8864895 C12.6179159,12.8561125 12.5491909,12.8319988 12.4801273,12.8147747 C12.7953145,12.6149754 13.0055522,12.2755046 13.0055522,11.9091016 C13.0055522,11.7093024 12.942921,11.5013608 12.8007313,11.3040669 C12.6639583,11.1146021 12.6013271,10.9057211 12.6013271,10.7015375 C12.6013271,10.1826231 13.0058907,9.69251997 13.6240775,9.62205785 C14.2832284,9.54689826 14.6458122,9.043329 14.6458122,8.53788074 C14.6458122,8.14078756 14.4223712,7.74244173 13.9433272,7.54984527 C13.4862888,7.36601744 13.2411809,6.96078197 13.2411809,6.55147536 C13.2411809,6.24707901 13.3765996,5.93986418 13.6613176,5.71939604 C14.5185185,5.05579948 13.9748121,3.7987553 12.93615,3.7987553 C12.8691177,3.7987553 12.8000542,3.80407911 12.7292979,3.81503988 C11.9966822,3.92809244 11.3757871,3.38944869 11.3757871,2.74840001 C11.3757871,2.64004493 11.3933916,2.52918453 11.4313088,2.4176978 C11.6032907,1.91131005 11.3778184,1.45941301 11,1.2082547 C11.2102377,1.06388565 11.4421423,1 11.6679531,1 C12.3863498,1 13.047532,1.64574616 12.7854966,2.4176978 C12.7475794,2.52918453 12.7299749,2.64004493 12.7299749,2.74840001 C12.7299749,3.38944869 13.3508701,3.92809244 14.0834857,3.81503988 C14.154242,3.80407911 14.2233056,3.7987553 14.2903379,3.7987553 C15.3289999,3.7987553 15.8727063,5.05579948 15.0155055,5.71939604 C14.7307875,5.93986418 14.5953687,6.24707901 14.5953687,6.55147536 C14.5953687,6.96078197 14.8404767,7.36601744 15.2975151,7.54984527 C15.776559,7.74244173 16,8.14078756 16,8.53788074 Z" fill="#88F6C6"/>
            <path d="M6.18078343,16 C6.0329424,16 5.88260141,15.9789819 5.73344791,15.9355129 C5.03927317,15.7331995 4.58312531,15.109009 4.59840628,14.3822868 C4.60281245,14.1729421 4.50531424,13.9888162 4.33087995,13.8771907 C4.16094557,13.7683777 3.95951177,13.7565964 3.77829636,13.8447843 C3.13396445,14.1584108 2.3838845,14.0057225 1.91179943,13.46497 C1.43393321,12.9175611 1.38387163,12.1435262 1.78733297,11.5388359 C1.90320583,11.3651475 1.91964303,11.1563966 1.83239464,10.9661144 C1.74702121,10.7798948 1.58293047,10.6588942 1.38218417,10.6341441 C0.669291024,10.5462374 0.120707361,10.0068599 0.0171780144,9.29195023 C-0.0867263251,8.57457183 0.287798038,7.89925614 0.949160877,7.61150478 C1.13650118,7.53000439 1.26090515,7.36572236 1.29049835,7.16081514 C1.3203103,6.95428292 1.24649916,6.75968824 1.08797082,6.62696887 C0.532512289,6.16184167 0.363359149,5.40593184 0.667009815,4.74595996 C0.967848034,4.09211312 1.64486683,3.73208016 2.35160384,3.85004947 C2.55010019,3.88317463 2.74028419,3.8143618 2.87346924,3.66126733 C3.01046672,3.50379783 3.05296594,3.29867186 2.99012335,3.09851467 C2.77206486,2.40413638 3.036435,1.67553918 3.64798625,1.28544358 C4.25278763,0.899660508 5.01567985,0.965723321 5.5463576,1.44981936 C5.69641734,1.58669501 5.89353871,1.63269523 6.08728515,1.57606996 C6.28400028,1.51853844 6.42771639,1.37044399 6.4815904,1.16975554 C6.66939945,0.470095975 7.27960697,0 8,0 C8.72042423,0 9.33066301,0.470064725 9.51844081,1.16975554 C9.57231482,1.37041274 9.71599968,1.51850719 9.91271481,1.57603871 C10.1064612,1.63269523 10.3036139,1.58669501 10.4536736,1.44978811 C10.9843201,0.965692071 11.7471811,0.899629258 12.352045,1.28541233 C12.963565,1.67547668 13.2279663,2.40410513 13.0099079,3.09848342 C12.9470653,3.29864061 12.9895957,3.50373533 13.126562,3.66120483 C13.2597158,3.81426805 13.4498998,3.88311213 13.6483961,3.84998697 C14.3554144,3.73198641 15.0321832,4.09208187 15.3329901,4.74592871 C15.6366721,5.40590059 15.4675189,6.16181041 14.9120604,6.62690637 C14.753532,6.75965699 14.6796897,6.95425167 14.7095329,7.16078389 C14.7390948,7.36569111 14.86353,7.52994189 15.0508703,7.61147353 C15.7122019,7.89922489 16.0867263,8.57457183 15.9828219,9.29195023 C15.8792926,10.0068286 15.3307089,10.5462062 14.6178158,10.6341128 C14.4170695,10.658863 14.2529788,10.7798635 14.1676053,10.9661144 C14.0803882,11.1563653 14.0967941,11.3651163 14.212667,11.5388046 C14.6160971,12.1435262 14.566098,12.9175611 14.0882005,13.46497 C13.6160842,14.0057538 12.8660043,14.1584108 12.2217036,13.8447843 C12.0404569,13.7565651 11.8390544,13.7684402 11.6690888,13.8771907 C11.4946857,13.9888162 11.3971875,14.1729421 11.4015624,14.3822868 C11.4168122,15.109009 10.9606955,15.7331995 10.2665208,15.9355129 C9.57703348,16.1365139 8.86192163,15.8573876 8.48727227,15.2411034 C8.38058673,15.0655401 8.20293375,14.9648833 7.99993748,14.9648833 C7.79694121,14.9648833 7.61931948,15.0655713 7.51263394,15.2411034 C7.21913934,15.7241057 6.71642983,16 6.18078343,16 L6.18078343,16 Z M7.99999998,13.9648473 C8.55217733,13.9648473 9.05382435,14.2477549 9.34185031,14.7216634 C9.55353391,15.0698838 9.88909024,15.0039148 9.9868072,14.9754459 C10.1920222,14.9156331 10.4088307,14.7339135 10.4018933,14.4032869 C10.3901748,13.845878 10.6623885,13.3343444 11.1300362,13.0349679 C11.5933089,12.738404 12.1650171,12.7049976 12.6593518,12.945655 C13.0206889,13.1214996 13.2678094,12.8842172 13.3349331,12.8073106 C13.4779305,12.6434661 13.5651164,12.369996 13.3808698,12.0938072 C13.0727192,11.6318988 13.0270325,11.0545211 13.2586533,10.5493312 C13.4884616,10.0481101 13.9507968,9.70879595 14.4954743,9.64163939 C14.8154997,9.60217045 14.9624032,9.36107556 14.9932151,9.1486058 C15.0242771,8.93410479 14.9509034,8.65857223 14.6519089,8.52847787 C14.1472932,8.30891433 13.7988309,7.85103716 13.7198323,7.30365957 C13.640615,6.75468822 13.84633,6.21509192 14.2701034,5.86024649 C14.5228488,5.64858924 14.5155989,5.36177538 14.4245693,5.16396194 C14.3815076,5.07036775 14.210167,4.77011633 13.8130493,4.83639789 C13.2719968,4.92671082 12.7332567,4.7327724 12.3721071,4.31758294 C12.0071763,3.8981122 11.888991,3.33035951 12.0558942,2.79888825 C12.1554861,2.481793 11.9963952,2.24466687 11.8143048,2.12854132 C11.7286502,2.07385357 11.425812,1.91657157 11.1275987,2.18860411 C10.7197312,2.56060587 10.160804,2.69051273 9.63203247,2.5358245 C9.10044849,2.38035502 8.69695591,1.96657181 8.55267732,1.42897551 C8.46777263,1.11269277 8.21152734,1.00000473 8.00003123,1.00000473 C7.78853512,1.00000473 7.53232108,1.11269277 7.44741639,1.42900676 C7.30310654,1.96660306 6.89958271,2.38038627 6.36799874,2.53585575 C5.83935221,2.69048148 5.28029999,2.56063712 4.87246374,2.18863536 C4.57428172,1.91663407 4.27147479,2.07391607 4.18575761,2.12854132 C4.00366721,2.24469812 3.84460764,2.481793 3.94419956,2.7989195 C4.11107149,3.33039076 3.99285491,3.8981122 3.62795537,4.31761419 C3.26677451,4.7327724 2.72815942,4.92677332 2.18701312,4.83642914 C1.78995792,4.77021008 1.61852357,5.070399 1.57546186,5.16399319 C1.48443228,5.36183788 1.47721367,5.64862049 1.72995902,5.86027774 C2.15376373,6.21512317 2.35947869,6.75475072 2.28023015,7.30372207 C2.2012316,7.85106841 1.85276926,8.30894558 1.34812229,8.52850912 C1.04912779,8.65863473 0.975785388,8.93416729 1.00684732,9.1486683 C1.037628,9.36113806 1.18453155,9.6022642 1.50455691,9.64170189 C2.0492344,9.70885845 2.5116009,10.0482038 2.74140917,10.5494249 C2.97302991,11.0546148 2.92734325,11.6319926 2.61916142,12.0938697 C2.43491481,12.3700585 2.5221007,12.6435286 2.66509808,12.8073731 C2.73225309,12.8842485 2.97937355,13.1215621 3.34064815,12.9457175 C3.83501406,12.7050914 4.4067223,12.7384665 4.86999503,13.0350304 C5.33764268,13.3344069 5.60985643,13.8459093 5.59813789,14.4033494 C5.59120052,14.733976 5.80797778,14.9156956 6.01319276,14.9755084 C6.11103471,15.0040085 6.44652854,15.0699151 6.65814965,14.7217572 C6.9462381,14.2477862 7.44782263,13.9648473 7.99999998,13.9648473 L7.99999998,13.9648473 Z" fill="#000000"/>
            <path d="M5.5,11 C5.37202247,11 5.2440853,10.9511877 5.14646056,10.8535318 C4.95117981,10.6582826 4.95117981,10.3416901 5.14646056,10.1464408 L10.1464475,5.14646037 C10.341697,4.95117988 10.65829,4.95117988 10.8535394,5.14646037 C11.0488202,5.3417096 11.0488202,5.65830212 10.8535394,5.85355135 L5.85355246,10.8535318 C5.75589647,10.9511877 5.6279593,11 5.5,11 Z" fill="#000000"/>
            <path d="M6,7 C5.44859375,7 5,6.55140625 5,6 C5,5.44859375 5.44859375,5 6,5 C6.55140625,5 7,5.44859375 7,6 C7,6.55140625 6.55140625,7 6,7 Z" fill="#000000"/>
            <path d="M10,11 C9.44859375,11 9,10.5514062 9,10 C9,9.44859375 9.44859375,9 10,9 C10.5514062,9 11,9.44859375 11,10 C11,10.5514062 10.551375,11 10,11 Z" fill="#000000"/>
          </g>
        </g>
      </g>
    </g>
  </g>
</svg>

<svg viewBox="0 0 16 16" xmlns="http://www.w3.org/2000/svg">
  <g fill-rule="nonzero" fill="none">
    <path d="M9.536 1.8a1.07 1.07 0 001.755.52c.812-.741 2.073.076 1.742 1.129-.242.77.408 1.526 1.198 1.394 1.08-.18 1.702 1.195.86 1.9a1.087 1.087 0 00.26 1.827c1.006.437.792 1.934-.294 2.068-.795.098-1.207 1.008-.76 1.678.611.916-.37 2.06-1.356 1.58-.722-.352-1.556.19-1.54.997.024 1.104-1.414 1.53-1.986.588a1.068 1.068 0 00-1.83 0c-.572.942-2.01.516-1.987-.588.017-.808-.817-1.349-1.539-.998-.985.48-1.967-.663-1.356-1.579.447-.67.035-1.58-.76-1.678-1.086-.134-1.3-1.63-.294-2.068.735-.32.876-1.31.26-1.826-.842-.706-.22-2.081.86-1.9.79.131 1.44-.625 1.198-1.395-.33-1.053.93-1.87 1.742-1.13a1.07 1.07 0 001.755-.52C7.751.734 9.25.734 9.536 1.8z" fill="#60E1A9"/>
    <path d="M16 8.538c0 .505-.363 1.009-1.022 1.084-.618.07-1.022.56-1.022 1.08 0 .204.062.413.199.602.142.197.205.405.205.605 0 .73-.836 1.355-1.674.977a1.23 1.23 0 00-.206-.071c.315-.2.526-.54.526-.906 0-.2-.063-.408-.205-.605-.137-.19-.2-.398-.2-.602 0-.52.405-1.01 1.023-1.08.66-.075 1.022-.579 1.022-1.084 0-.397-.224-.796-.703-.988-.457-.184-.702-.59-.702-.999 0-.304.136-.611.42-.832.858-.663.314-1.92-.725-1.92-.067 0-.136.005-.207.016-.732.113-1.353-.426-1.353-1.067 0-.108.017-.219.055-.33.172-.507-.053-.959-.431-1.21.21-.144.442-.208.668-.208.718 0 1.38.646 1.117 1.418a1.023 1.023 0 00-.055.33c0 .641.62 1.18 1.353 1.067.071-.01.14-.016.207-.016 1.039 0 1.583 1.257.726 1.92-.285.22-.42.528-.42.832 0 .41.244.815.702.999.479.192.702.59.702.988z" fill="#88F6C6"/>
    <path d="M6.18 16c-.147 0-.297-.021-.447-.064a1.564 1.564 0 01-1.135-1.554.573.573 0 00-.267-.505.555.555 0 00-.553-.032 1.551 1.551 0 01-1.866-.38 1.572 1.572 0 01-.125-1.926.578.578 0 00.045-.573.563.563 0 00-.45-.332A1.561 1.561 0 01.017 9.292a1.567 1.567 0 01.932-1.68.57.57 0 00.341-.451.575.575 0 00-.202-.534 1.571 1.571 0 01-.421-1.881c.3-.654.978-1.014 1.685-.896a.557.557 0 00.521-.189.577.577 0 00.117-.562 1.569 1.569 0 01.658-1.814 1.55 1.55 0 011.898.165c.15.137.348.183.541.126a.566.566 0 00.395-.406C6.669.47 7.28 0 8 0s1.33.47 1.518 1.17c.054.2.198.349.395.406.193.057.39.01.54-.126a1.55 1.55 0 011.899-.165c.612.39.876 1.12.658 1.813-.063.2-.02.406.117.563a.557.557 0 00.521.189 1.555 1.555 0 011.685.896 1.57 1.57 0 01-.42 1.88.575.575 0 00-.203.535.57.57 0 00.34.45c.662.288 1.037.964.933 1.681a1.561 1.561 0 01-1.365 1.342.563.563 0 00-.45.332.578.578 0 00.045.573 1.572 1.572 0 01-.125 1.926 1.551 1.551 0 01-1.866.38.555.555 0 00-.553.032.573.573 0 00-.267.505c.015.727-.441 1.351-1.135 1.554a1.553 1.553 0 01-1.78-.695.56.56 0 00-.487-.276.56.56 0 00-.487.276A1.553 1.553 0 016.18 16zM8 13.965a1.56 1.56 0 011.342.757.548.548 0 00.645.253.562.562 0 00.415-.572 1.573 1.573 0 01.728-1.368 1.555 1.555 0 011.53-.09.547.547 0 00.675-.138.57.57 0 00.046-.713 1.58 1.58 0 01-.122-1.545c.23-.5.692-.84 1.236-.907a.56.56 0 00.498-.493.565.565 0 00-.341-.62 1.57 1.57 0 01-.932-1.225 1.576 1.576 0 01.55-1.444.569.569 0 00.155-.696.552.552 0 00-.612-.328 1.558 1.558 0 01-1.44-.518 1.578 1.578 0 01-.317-1.52.567.567 0 00-.242-.67.546.546 0 00-.686.06 1.555 1.555 0 01-1.496.348 1.566 1.566 0 01-1.08-1.107A.556.556 0 008 1a.556.556 0 00-.553.429 1.566 1.566 0 01-1.079 1.107 1.556 1.556 0 01-1.496-.347.546.546 0 00-.686-.06.567.567 0 00-.242.67c.167.531.049 1.1-.316 1.519-.361.415-.9.609-1.441.518a.552.552 0 00-.612.328.569.569 0 00.155.696c.424.355.63.895.55 1.444a1.57 1.57 0 01-.932 1.225.565.565 0 00-.341.62.56.56 0 00.498.493 1.564 1.564 0 011.236.907 1.579 1.579 0 01-.122 1.545.57.57 0 00.046.713.547.547 0 00.676.139 1.555 1.555 0 011.529.089c.468.3.74.81.728 1.368-.007.331.21.513.415.573a.548.548 0 00.645-.254A1.56 1.56 0 018 13.965z" fill="#000"/>
    <path d="M5.5 11a.498.498 0 01-.354-.854l5-5a.5.5 0 11.708.708l-5 5A.498.498 0 015.5 11zM6 7a1.001 1.001 0 010-2 1.001 1.001 0 010 2zM10 11a1.001 1.001 0 010-2 1.001 1.001 0 010 2z" fill="#000"/>
  </g>
</svg>
